X: 37850
T: Soporific, The
R: hornpipe
M: 4/4
K: Dmajor
ABAF GECA,|DFAF ~G2FE|FA (3Bcd BGED|CA,CE ~A2GE|
FAFE EFEC|DFAB GE~E2|FD~D2 DEFG|EDDC D4:|
A,CEC ABcA|Fddc ~d2Ad|BABF Adef|eBdc A2AG|
FEFA dAFA|GABd BAFE|FD~D2 DEFG|EDDC D4:|

